X:31
T:The Pinsota Fusion
R:reel
C: 1978, 2010 L.E. McCullough  
M:4/4
L:1/8
K:D
D~F3 ~E3F|D~F3 ABdf|~e3f edBA|F~A3 BAFE|
~F3E DEFA|Bdfe d~B3|~A3d fded|1 (3Bcd AF ~D3F:|2 (3Bcd AF ~D3e|]
|:~f3e dBAF|~A3F ABdf|~e3f edBd|fafd ~e3f|
edef gfed|Bdef d~B3|~A3d fded|1 (3Bcd AF ~D3e:|2 (3Bcd AF ~D3F|]
<end>
<start>
